X:5544
T:Richard's Hornpipe
O:england
B:Joyce, P. W.; "Old Irish Folk Music and Songs"
R:hornpipe
M:2/4
K:D
L:1/8
fg|afaf|d2 ((3efg)|ecec|A2 GF|GABc|defg|ecAc|e2 fg|
afaf|d2 ef|ecec|A2 GF|Ggbg|fdec|d2 dd|d2||de|
fedc|B2 ga|{g}b2 e2|e2 cd|edcB|A2 fg|{f}a2 d2|d2 A2|
B>cdB|AFAF|B>cdB|AFAF|Ggbg|fdec|d2 dd|d2||


